src/icons/git-compare.svg

<svg width="16" height="16" viewBox="0 0 16 16" fill="none" xmlns="http://www.w3.org/2000/svg">
<path fill-rule="evenodd" clip-rule="evenodd" d="M7.38893 12.9906L6.11891 11.7205L6.78893 11.0206L8.91893 13.1506V13.8505L6.78893 15.9805L6.07893 15.2706L7.34892 14.0006H5.49892C5.17024 14.0019 4.84458 13.9381 4.54067 13.8129C4.23675 13.6878 3.96061 13.5037 3.7282 13.2713C3.49579 13.0389 3.31171 12.7627 3.18654 12.4588C3.06137 12.1549 2.99759 11.8292 2.99892 11.5006V5.95052C2.5198 5.84851 2.07944 5.61279 1.72893 5.27059C1.3808 4.91884 1.14393 4.47238 1.0479 3.98689C0.951867 3.50141 1.00092 2.9984 1.18892 2.54061C1.37867 2.08436 1.69938 1.69458 2.11052 1.42049C2.52166 1.14639 3.00479 1.00024 3.49892 1.00057C3.84188 0.993194 4.18256 1.05787 4.49892 1.19051C4.80197 1.31518 5.07732 1.49871 5.30904 1.73042C5.54075 1.96214 5.72425 2.23755 5.84892 2.54061C5.98157 2.85696 6.0463 3.19765 6.03893 3.54061C6.03926 4.03474 5.89316 4.51789 5.61906 4.92903C5.34497 5.34017 4.95516 5.6608 4.49892 5.85054C4.35057 5.91224 4.19649 5.95915 4.03893 5.99056V11.4906C4.03893 11.8884 4.19695 12.2699 4.47826 12.5512C4.75956 12.8325 5.1411 12.9906 5.53893 12.9906H7.38893ZM2.70894 4.74056C2.95497 4.90376 3.24368 4.99072 3.53893 4.99056C3.81026 4.99066 4.07654 4.91718 4.3094 4.77791C4.54227 4.63864 4.73301 4.43877 4.86128 4.19966C4.98956 3.96056 5.05057 3.69116 5.03783 3.42012C5.02508 3.14908 4.93907 2.88661 4.78893 2.6606C4.62119 2.4121 4.38499 2.21751 4.10893 2.10054C3.83645 1.98955 3.53719 1.96176 3.24892 2.02059C2.95693 2.07705 2.68852 2.2196 2.47823 2.42989C2.26793 2.64018 2.12539 2.90853 2.06892 3.20052C2.0101 3.4888 2.03792 3.78802 2.14891 4.0605C2.26588 4.33656 2.46043 4.57282 2.70894 4.74056ZM13.0389 11.0406C13.5196 11.1384 13.9612 11.3747 14.309 11.7206C14.7766 12.191 15.039 12.8273 15.0389 13.4906C15.0393 13.9847 14.8932 14.4679 14.6191 14.879C14.345 15.2902 13.9552 15.6109 13.499 15.8007C13.0416 15.9915 12.5378 16.0421 12.0516 15.946C11.5654 15.85 11.1187 15.6117 10.7683 15.2612C10.4179 14.9108 10.1795 14.4641 10.0835 13.9779C9.98746 13.4917 10.0381 12.988 10.2289 12.5306C10.4218 12.0768 10.7412 11.688 11.1489 11.4106C11.4177 11.2286 11.7204 11.1028 12.0389 11.0406V5.4906C12.0389 5.09278 11.8809 4.71124 11.5996 4.42993C11.3183 4.14863 10.9368 3.9906 10.5389 3.9906H8.68896L9.95892 5.26062L9.24896 5.97058L7.11893 3.84058V3.14062L9.24896 1.01062L9.95892 1.72058L8.68896 2.9906H10.5389C10.8676 2.98928 11.1933 3.05305 11.4972 3.17822C11.8011 3.30339 12.0772 3.48744 12.3096 3.71985C12.542 3.95226 12.7262 4.22844 12.8513 4.53235C12.9765 4.83626 13.0403 5.16193 13.0389 5.4906V11.0406ZM12.6879 14.9829C13.0324 14.9483 13.3542 14.7956 13.5989 14.5507C13.8439 14.306 13.9966 13.984 14.0312 13.6395C14.0659 13.295 13.9803 12.9492 13.7889 12.6606C13.6212 12.4121 13.385 12.2176 13.1089 12.1006C12.8365 11.9896 12.5372 11.9618 12.249 12.0206C11.957 12.0771 11.6886 12.2196 11.4783 12.4299C11.268 12.6402 11.1254 12.9086 11.069 13.2006C11.0101 13.4888 11.0379 13.7881 11.1489 14.0605C11.2659 14.3366 11.4604 14.5729 11.7089 14.7406C11.9975 14.9319 12.3434 15.0175 12.6879 14.9829Z" fill="white"/>
</svg>

<svg width="16" height="16" xmlns="http://www.w3.org/2000/svg"><path fill-rule="evenodd" clip-rule="evenodd" d="M7.389 12.99l-1.27-1.27.67-.7 2.13 2.13v.7l-2.13 2.13-.71-.71L7.349 14h-1.85a2.49 2.49 0 0 1-2.5-2.5V5.95a2.59 2.59 0 0 1-1.27-.68 2.52 2.52 0 0 1-.54-2.73A2.5 2.5 0 0 1 3.499 1a2.45 2.45 0 0 1 1 .19 2.48 2.48 0 0 1 1.35 1.35c.133.317.197.658.19 1a2.5 2.5 0 0 1-2 2.45v5.5a1.5 1.5 0 0 0 1.5 1.5h1.85zm-4.68-8.25a1.5 1.5 0 0 0 2.08-2.08 1.55 1.55 0 0 0-.68-.56 1.49 1.49 0 0 0-.86-.08 1.49 1.49 0 0 0-1.18 1.18 1.49 1.49 0 0 0 .08.86c.117.277.311.513.56.68zm10.33 6.3c.48.098.922.335 1.27.68a2.51 2.51 0 0 1 .31 3.159 2.5 2.5 0 1 1-3.47-3.468c.269-.182.571-.308.89-.37V5.49a1.5 1.5 0 0 0-1.5-1.5h-1.85l1.27 1.27-.71.71-2.13-2.13v-.7l2.13-2.13.71.71-1.27 1.27h1.85a2.49 2.49 0 0 1 2.5 2.5v5.55zm-.351 3.943a1.5 1.5 0 0 0 1.1-2.322 1.55 1.55 0 0 0-.68-.56 1.49 1.49 0 0 0-.859-.08 1.49 1.49 0 0 0-1.18 1.18 1.49 1.49 0 0 0 .08.86 1.5 1.5 0 0 0 1.539.922z"/></svg>
